svg/set/MOM/T.svg

<?xml version="1.0" encoding="utf-8"?>
<!-- Generator: Adobe Illustrator 15.1.0, SVG Export Plug-In . SVG Version: 6.00 Build 0)  -->
<!DOCTYPE svg PUBLIC "-//W3C//DTD SVG 1.1//EN" "http://www.w3.org/Graphics/SVG/1.1/DTD/svg11.dtd">
<svg version="1.1"
	 id="Layer_1" xmlns:rdf="http://www.w3.org/1999/02/22-rdf-syntax-ns#" xmlns:cc="http://creativecommons.org/ns#" xmlns:dc="http://purl.org/dc/elements/1.1/" xmlns:svg="http://www.w3.org/2000/svg"
	 xmlns="http://www.w3.org/2000/svg" xmlns:xlink="http://www.w3.org/1999/xlink" x="0px" y="0px" width="156px" height="116px"
	 viewBox="0 0 156 116" enable-background="new 0 0 156 116" xml:space="preserve">
<g>
	<path fill="#FFFFFF" d="M62.386,24.234l14.67-22.772c5.831,0.209,11.667,1.344,17.276,3.45l-7.426,19.02
		C78.879,20.991,70.139,21.192,62.386,24.234z M43.579,83.659l4.199-5.997c-4.962-6.358-7.479-14.208-7.294-22.1L24.105,77.087
		c2.459,6.071,6.021,11.746,10.627,16.701l3.01-12.737L43.579,83.659z M55.212,84.715c-1.785-1.25-3.408-2.645-4.881-4.146
		l-5.454,7.79l-4.522-2.023l-2.462,10.591c1.75,1.601,3.622,3.106,5.617,4.503c4.632,3.243,9.589,5.672,14.703,7.317l-0.33-22.344
		C56.977,85.883,56.084,85.325,55.212,84.715z M98.305,6.587l-7.492,19.061c1.385,0.713,2.74,1.519,4.053,2.437
		c4.645,3.253,8.236,7.444,10.716,12.136l8.874-0.532l8.584-10.102c-3.916-7.023-9.44-13.294-16.471-18.216
		C103.911,9.509,101.145,7.918,98.305,6.587z M62.232,88.503l0.308,21.439c16.466,3.839,34.03-0.13,47.271-10.951L92.005,86.523
		C83.01,91.581,72.031,92.422,62.232,88.503z M107.258,43.879c2.18,5.624,2.865,11.76,1.949,17.764l17.869,12.512
		c4.621-13.525,3.709-28.226-2.182-40.928l-8.609,10.111L107.258,43.879z M53.021,75.667l0.559-18.015l14.229,9.963l7.565,3.004
		l47.647,33.363l30.055,7.061l-16.914-25.827L88.516,51.853l-5.41-6.082l-14.229-9.964l16.737-6.687l-28.444-3.456L72.732,1.482
		c-4.681,0.2-9.321,0.993-13.801,2.362L45.829,24.634l-5.672-1.432l-0.305-0.078L18.383,8.092L16.075,1.28L3.355,6.206L3.077,19.844
		l7.19-0.16l21.468,15.032l0.177,0.261l3.286,4.839L20.15,59.306c0.25,4.655,1.09,9.262,2.496,13.707L40.045,50.12L53.021,75.667z"
		/>
	<linearGradient id="SVGID_1_" gradientUnits="userSpaceOnUse" x1="42.9766" y1="96.8975" x2="109.3604" y2="17.7843">
		<stop  offset="0" style="stop-color:#622D76"/>
		<stop  offset="0.013" style="stop-color:#68357C"/>
		<stop  offset="0.0426" style="stop-color:#724586"/>
		<stop  offset="0.0718" style="stop-color:#794F8E"/>
		<stop  offset="0.1" style="stop-color:#7B5290"/>
		<stop  offset="0.1153" style="stop-color:#805894"/>
		<stop  offset="0.1805" style="stop-color:#956EA3"/>
		<stop  offset="0.2491" style="stop-color:#A680B0"/>
		<stop  offset="0.3218" style="stop-color:#B48DBA"/>
		<stop  offset="0.4011" style="stop-color:#BC96C0"/>
		<stop  offset="0.5" style="stop-color:#BF99C2"/>
		<stop  offset="0.5989" style="stop-color:#BC96C0"/>
		<stop  offset="0.6782" style="stop-color:#B48DBA"/>
		<stop  offset="0.7509" style="stop-color:#A680B0"/>
		<stop  offset="0.8195" style="stop-color:#956EA3"/>
		<stop  offset="0.8847" style="stop-color:#805894"/>
		<stop  offset="0.9" style="stop-color:#7B5290"/>
		<stop  offset="0.9265" style="stop-color:#784D8D"/>
		<stop  offset="0.9613" style="stop-color:#6F4183"/>
		<stop  offset="1" style="stop-color:#622D76"/>
	</linearGradient>
	<path fill="url(#SVGID_1_)" d="M90.053,6.993l-4.992,12.725c-5.033-1.37-10.245-1.673-15.309-0.959
		c2.819-4.381,6.068-9.43,8.922-13.862C82.5,5.161,86.317,5.858,90.053,6.993z M42.465,79.633l1.213-1.733
		c-2.834-4.145-4.796-8.771-5.819-13.594c-3.152,4.146-6.785,8.928-9.974,13.124c1.419,3.192,3.172,6.256,5.243,9.137l2.374-10.046
		L42.465,79.633z M53.242,87.568c-0.877-0.614-1.713-1.265-2.522-1.938l-4.729,6.754l-3.396-1.519l-1.126,4.764
		c1.262,1.078,2.583,2.109,3.971,3.081c3.03,2.122,6.209,3.869,9.482,5.259l-0.222-15.435
		C54.209,88.224,53.722,87.904,53.242,87.568z M99.95,11.169l-5.029,12.817c0.658,0.403,1.312,0.821,1.952,1.271
		c4.537,3.177,8.158,7.17,10.825,11.636l5.188-0.333l6.15-7.223c-3.586-5.833-8.396-11.046-14.361-15.223
		C103.137,13.036,101.559,12.057,99.95,11.169z M65.507,93.234l0.202,13.973c13.35,2.448,27.264-0.471,38.529-8.184l-12.227-8.562
		C83.858,94.512,74.418,95.543,65.507,93.234z M123.829,39.448l-5.978,7.018l-5.991,0.383c1.132,4.366,1.479,8.919,1.023,13.436
		l12.29,8.606C127.611,59.09,127.088,48.842,123.829,39.448z M57.848,40.311l7.542-3.013l15.56,10.895l5.41,6.083l47.448,33.224
		l12.156,18.563l-21.601-5.075L76.914,67.764l-7.565-3.003l-15.56-10.896l0.251-8.117l4.831,0.974
		c-1.04,2.554-0.225,5.574,2.128,7.222c2.732,1.914,6.499,1.25,8.413-1.483c1.913-2.733,1.249-6.5-1.483-8.413
		c-2.354-1.647-5.47-1.38-7.514,0.47L57.848,40.311z M78.412,51.388c-2.732-1.914-6.5-1.25-8.413,1.483
		c-1.914,2.732-1.25,6.499,1.484,8.412c2.732,1.914,6.499,1.25,8.413-1.483C81.81,57.067,81.145,53.301,78.412,51.388z
		 M52.923,32.243l3.174,5.199L72.726,30.8l-17.505-2.128L52.923,32.243z M44.798,43.884l-2.581,3.396l7.975,15.701l0.555-17.897
		L44.798,43.884z M55.026,42.387l-6.061-9.928L66.293,5.532c-1.806,0.312-3.597,0.713-5.362,1.213L47.305,28.33l-5.304-1.34
		l-2.125,4.788l-3.773,3.635l3.074,4.525L23.555,60.125c0.133,1.83,0.368,3.65,0.694,5.454l19.376-25.492L55.026,42.387z
		 M15.243,8.863l-1.14-3.364l-7.57,2.932l-0.166,8.117l3.551-0.079L15.243,8.863z"/>
	<path fill="#622D76" d="M66.081,46.686c1.275,0.894,1.585,2.651,0.692,3.926c-0.893,1.276-2.651,1.586-3.926,0.693
		c-1.275-0.894-1.585-2.651-0.692-3.927S64.806,45.793,66.081,46.686z M13.119,17.747l20.948,14.668l0.2,0.294l2.921-2.813
		l1.645-3.706l-0.344-0.088L17.54,11.434L13.119,17.747z M72.638,54.719c-0.893,1.275-0.583,3.033,0.692,3.926
		s3.033,0.583,3.926-0.692s0.583-3.033-0.692-3.926S73.531,53.443,72.638,54.719z"/>
</g>
</svg>

<?xml version="1.0" encoding="UTF-8" standalone="no"?>
<!-- Generator: Adobe Illustrator 15.1.0, SVG Export Plug-In . SVG Version: 6.00 Build 0)  -->

<svg
   version="1.1"
   id="Layer_1"
   x="0px"
   y="0px"
   width="149.99899"
   height="110.09219"
   viewBox="0 0 149.99899 110.09219"
   enable-background="new 0 0 156 116"
   xml:space="preserve"
   xmlns="http://www.w3.org/2000/svg"
   xmlns:svg="http://www.w3.org/2000/svg"><defs
   id="defs21" />
<g
   id="g21"
   transform="translate(-3.077,-1.28)">
	<path
   fill="#ffffff"
   d="M 62.386,24.234 77.056,1.462 c 5.831,0.209 11.667,1.344 17.276,3.45 l -7.426,19.02 c -8.027,-2.941 -16.767,-2.74 -24.52,0.302 z M 43.579,83.659 47.778,77.662 C 42.816,71.304 40.299,63.454 40.484,55.562 L 24.105,77.087 c 2.459,6.071 6.021,11.746 10.627,16.701 l 3.01,-12.737 z m 11.633,1.056 c -1.785,-1.25 -3.408,-2.645 -4.881,-4.146 l -5.454,7.79 -4.522,-2.023 -2.462,10.591 c 1.75,1.601 3.622,3.106 5.617,4.503 4.632,3.243 9.589,5.672 14.703,7.317 l -0.33,-22.344 c -0.906,-0.52 -1.799,-1.078 -2.671,-1.688 z M 98.305,6.587 90.813,25.648 c 1.385,0.713 2.74,1.519 4.053,2.437 4.645,3.253 8.236,7.444 10.716,12.136 l 8.874,-0.532 8.584,-10.102 C 119.124,22.564 113.6,16.293 106.569,11.371 103.911,9.509 101.145,7.918 98.305,6.587 Z m -36.073,81.916 0.308,21.439 c 16.466,3.839 34.03,-0.13 47.271,-10.951 L 92.005,86.523 c -8.995,5.058 -19.974,5.899 -29.773,1.98 z m 45.026,-44.624 c 2.18,5.624 2.865,11.76 1.949,17.764 l 17.869,12.512 c 4.621,-13.525 3.709,-28.226 -2.182,-40.928 l -8.609,10.111 z m -54.237,31.788 0.559,-18.015 14.229,9.963 7.565,3.004 47.647,33.363 30.055,7.061 L 136.162,85.216 88.516,51.853 83.106,45.771 68.877,35.807 85.614,29.12 57.17,25.664 72.732,1.482 c -4.681,0.2 -9.321,0.993 -13.801,2.362 L 45.829,24.634 40.157,23.202 39.852,23.124 18.383,8.092 16.075,1.28 3.355,6.206 3.077,19.844 l 7.19,-0.16 21.468,15.032 0.177,0.261 3.286,4.839 -15.048,19.49 c 0.25,4.655 1.09,9.262 2.496,13.707 L 40.045,50.12 Z"
   id="path1" />
	<linearGradient
   id="SVGID_1_"
   gradientUnits="userSpaceOnUse"
   x1="42.976601"
   y1="96.897499"
   x2="109.3604"
   y2="17.7843">
		<stop
   offset="0"
   style="stop-color:#622D76"
   id="stop1" />
		<stop
   offset="0.013"
   style="stop-color:#68357C"
   id="stop2" />
		<stop
   offset="0.0426"
   style="stop-color:#724586"
   id="stop3" />
		<stop
   offset="0.0718"
   style="stop-color:#794F8E"
   id="stop4" />
		<stop
   offset="0.1"
   style="stop-color:#7B5290"
   id="stop5" />
		<stop
   offset="0.1153"
   style="stop-color:#805894"
   id="stop6" />
		<stop
   offset="0.1805"
   style="stop-color:#956EA3"
   id="stop7" />
		<stop
   offset="0.2491"
   style="stop-color:#A680B0"
   id="stop8" />
		<stop
   offset="0.3218"
   style="stop-color:#B48DBA"
   id="stop9" />
		<stop
   offset="0.4011"
   style="stop-color:#BC96C0"
   id="stop10" />
		<stop
   offset="0.5"
   style="stop-color:#BF99C2"
   id="stop11" />
		<stop
   offset="0.5989"
   style="stop-color:#BC96C0"
   id="stop12" />
		<stop
   offset="0.6782"
   style="stop-color:#B48DBA"
   id="stop13" />
		<stop
   offset="0.7509"
   style="stop-color:#A680B0"
   id="stop14" />
		<stop
   offset="0.8195"
   style="stop-color:#956EA3"
   id="stop15" />
		<stop
   offset="0.8847"
   style="stop-color:#805894"
   id="stop16" />
		<stop
   offset="0.9"
   style="stop-color:#7B5290"
   id="stop17" />
		<stop
   offset="0.9265"
   style="stop-color:#784D8D"
   id="stop18" />
		<stop
   offset="0.9613"
   style="stop-color:#6F4183"
   id="stop19" />
		<stop
   offset="1"
   style="stop-color:#622D76"
   id="stop20" />
	</linearGradient>
	<path
   fill="url(#SVGID_1_)"
   d="M 90.053,6.993 85.061,19.718 C 80.028,18.348 74.816,18.045 69.752,18.759 72.571,14.378 75.82,9.329 78.674,4.897 82.5,5.161 86.317,5.858 90.053,6.993 Z M 42.465,79.633 43.678,77.9 c -2.834,-4.145 -4.796,-8.771 -5.819,-13.594 -3.152,4.146 -6.785,8.928 -9.974,13.124 1.419,3.192 3.172,6.256 5.243,9.137 l 2.374,-10.046 z m 10.777,7.935 C 52.365,86.954 51.529,86.303 50.72,85.63 l -4.729,6.754 -3.396,-1.519 -1.126,4.764 c 1.262,1.078 2.583,2.109 3.971,3.081 3.03,2.122 6.209,3.869 9.482,5.259 L 54.7,88.534 c -0.491,-0.31 -0.978,-0.63 -1.458,-0.966 z M 99.95,11.169 94.921,23.986 c 0.658,0.403 1.312,0.821 1.952,1.271 4.537,3.177 8.158,7.17 10.825,11.636 l 5.188,-0.333 6.15,-7.223 C 115.45,23.504 110.64,18.291 104.675,14.114 103.137,13.036 101.559,12.057 99.95,11.169 Z m -34.443,82.065 0.202,13.973 c 13.35,2.448 27.264,-0.471 38.529,-8.184 L 92.011,90.461 c -8.153,4.051 -17.593,5.082 -26.504,2.773 z m 58.322,-53.786 -5.978,7.018 -5.991,0.383 c 1.132,4.366 1.479,8.919 1.023,13.436 l 12.29,8.606 c 2.438,-9.801 1.915,-20.049 -1.344,-29.443 z m -65.981,0.863 7.542,-3.013 15.56,10.895 5.41,6.083 47.448,33.224 12.156,18.563 -21.601,-5.075 -47.449,-33.224 -7.565,-3.003 -15.56,-10.896 0.251,-8.117 4.831,0.974 c -1.04,2.554 -0.225,5.574 2.128,7.222 2.732,1.914 6.499,1.25 8.413,-1.483 1.913,-2.733 1.249,-6.5 -1.483,-8.413 -2.354,-1.647 -5.47,-1.38 -7.514,0.47 z m 20.564,11.077 c -2.732,-1.914 -6.5,-1.25 -8.413,1.483 -1.914,2.732 -1.25,6.499 1.484,8.412 2.732,1.914 6.499,1.25 8.413,-1.483 1.914,-2.733 1.249,-6.499 -1.484,-8.412 z M 52.923,32.243 56.097,37.442 72.726,30.8 55.221,28.672 Z m -8.125,11.641 -2.581,3.396 7.975,15.701 0.555,-17.897 z M 55.026,42.387 48.965,32.459 66.293,5.532 c -1.806,0.312 -3.597,0.713 -5.362,1.213 l -13.626,21.585 -5.304,-1.34 -2.125,4.788 -3.773,3.635 3.074,4.525 -15.622,20.187 c 0.133,1.83 0.368,3.65 0.694,5.454 L 43.625,40.087 Z M 15.243,8.863 14.103,5.499 6.533,8.431 6.367,16.548 9.918,16.469 Z"
   id="path20"
   style="fill:url(#SVGID_1_)" />
	<path
   fill="#622d76"
   d="m 66.081,46.686 c 1.275,0.894 1.585,2.651 0.692,3.926 -0.893,1.276 -2.651,1.586 -3.926,0.693 -1.275,-0.894 -1.585,-2.651 -0.692,-3.927 0.893,-1.276 2.651,-1.585 3.926,-0.692 z m -52.962,-28.939 20.948,14.668 0.2,0.294 2.921,-2.813 L 38.833,26.19 38.489,26.102 17.54,11.434 Z m 59.519,36.972 c -0.893,1.275 -0.583,3.033 0.692,3.926 1.275,0.893 3.033,0.583 3.926,-0.692 0.893,-1.275 0.583,-3.033 -0.692,-3.926 -1.275,-0.893 -3.033,-0.584 -3.926,0.692 z"
   id="path21" />
</g>
</svg>
